X:19279
T:Zoukophony  chords
O:New Zealand
M:7/8
C:Mark Fitzsimons
A:Auckland
K:E Phrygian
"e"FED EF EF|"d"GFE FE FE|"e"FED EF EF|"d"GFE FE FE:||
"e"EB EA EFG|"a"A2GA2c2|"a"ed ec "G"Bcd|"e"eBG EE FE|
"e"GE AE BGE|"d"D2EF2A2|"C"cd "G"Bc "e"BAG|"a"AEE GE FE:||
"d"DA DEG DF|"a"E2 DE "b"FED|"e"EB EFA EG|"b"F2 EF "C"GFE|
"d"DA DG DEF|"e"EB EA EFG|"d"ADF "a"EE DE|[1 "C"CD "G"B,D "a"A,B,C:|[2 "C"CD "G"B,D "d"A,DE|]
